src/pos-icons/shield-home.svg

<svg height="24" viewBox="0 0 24 24" width="24" xmlns="http://www.w3.org/2000/svg"><path d="m11 13h2v3h3v-5h2l-6-5-6 5h2v5h3zm1-12 9 4v6c0 5.55-3.84 10.74-9 12-5.16-1.26-9-6.45-9-12v-6z"/></svg>

<?xml version="1.0" encoding="UTF-8"?><!DOCTYPE svg PUBLIC "-//W3C//DTD SVG 1.1//EN" "http://www.w3.org/Graphics/SVG/1.1/DTD/svg11.dtd"><svg xmlns="http://www.w3.org/2000/svg" xmlns:xlink="http://www.w3.org/1999/xlink" version="1.1" id="mdi-shield-home" width="24" height="24" viewBox="0 0 24 24"><path d="M11,13H13V16H16V11H18L12,6L6,11H8V16H11V13M12,1L21,5V11C21,16.55 17.16,21.74 12,23C6.84,21.74 3,16.55 3,11V5L12,1Z" /></svg>
